X: 10172
T: FOOTE'S MINUET
%R: minuet, waltz
B: "Edinburgh Repository of Music" v.1 p.17 #2
F: http://digital.nls.uk/special-collections-of-printed-music/pageturner.cfm?id=87776133
Z: 2015 John Chambers <jc:trillian.mit.edu>
M: 3/4
L: 1/8
K: D
|:\
a2 f2 a2 | a2 g2 f2 | e2 d2 e2 | (fe) (fg) (fg) |\
a2 f2 a2 | a2 g2 f2 | e2 d2 e2 | f6 :|
|:\
f2 f2 f2 | edefef | g2 g2 g2 | fefgfg |\
a2 f2 a2 | a2 g2 f2 | (3(gfe) f2 e2 | d6 :|

%%sep 2 1 500
%%sep 1 1 500

